X: 14174
T: Frontier, The
R: reel
M: 4/4
K: Gminor
DB,FB, GB,FB,|DB,DF ECCE|_A,ECE FECE|_A,ECE DB,B,E|
DB,FB, GB,FB,|DB,DF ECCD|CEDF EGFA|GBAc B4:|
fbdf BdFB|dBfB gBfA|BdcB AFcF|(3ABc FA ecAc|
fbdf BdFB|dBfB gBfA|BAcB dcec|AFAc B4:|
(3dcB fB gBfB|FBdB fBdB|ecgc acgc|Gcgc ecce|
dBfB gBfB|FBdB fBd2|BAcB dcec|AFAc B4:|

